icon_installer/data/icons/scalable/actions/show-rotation-lock-disabled-symbolic.svg

<?xml version="1.0" encoding="UTF-8"?>
<svg height="16px" viewBox="0 0 16 16" width="16px" xmlns="http://www.w3.org/2000/svg">
    <g fill="#222222">
        <path d="m 8.59375 1 c 0.613281 0.007812 1.234375 0.089844 1.847656 0.257812 c 3.273438 0.875 5.558594 3.851563 5.558594 7.242188 s -2.285156 6.367188 -5.558594 7.242188 c -3.273437 0.878906 -6.742187 -0.554688 -8.4375 -3.492188 c -0.277344 -0.476562 -0.109375 -1.089844 0.367188 -1.363281 c 0.476562 -0.277344 1.089844 -0.113281 1.367187 0.363281 c 1.246094 2.160156 3.777344 3.207031 6.1875 2.5625 c 2.40625 -0.644531 4.074219 -2.816406 4.074219 -5.3125 s -1.667969 -4.667969 -4.074219 -5.3125 c -2.410156 -0.644531 -4.941406 0.402344 -6.1875 2.5625 c -0.058593 0.085938 -0.125 0.164062 -0.203125 0.230469 l 0.019532 0.011719 l 0.007812 0.007812 h 0.4375 c 0.550781 0 1 0.449219 1 1 v 1 h -5 v -5 h 1 c 0.550781 0 1 0.449219 1 1 v 0.6875 l 0.015625 0.011719 l 0.011719 0.011719 c 1.277344 -2.179688 3.53125 -3.519532 5.953125 -3.691407 c 0.203125 -0.015625 0.40625 -0.019531 0.613281 -0.015625 z m 0 0"/>
        <path d="m 6 8 h 5.003906 c 0.539063 0 0.996094 0.550781 0.996094 1 v 3 h -7 v -2.984375 c 0 -0.511719 0.523438 -1.015625 1 -1.015625 z m 0 0"/>
        <path d="m 8.484375 3.976562 c -1.351563 0.019532 -2.484375 1.320313 -2.484375 3.023438 v 2 h 2 v -2 c 0 -0.953125 0.367188 -1.023438 0.515625 -1.023438 c 0.148437 -0.003906 0.484375 0.015626 0.484375 1.023438 h 2 c 0 -1.738281 -1.164062 -3.046875 -2.515625 -3.023438 z m 0 0"/>
    </g>
</svg>

<svg xmlns="http://www.w3.org/2000/svg" width="16" height="16"><g fill="#222"><path d="M8.594 1A7.504 7.504 0 0 1 16 8.5a7.504 7.504 0 0 1-5.559 7.242 7.505 7.505 0 0 1-8.437-3.492 1.002 1.002 0 0 1 1.734-1 5.493 5.493 0 0 0 6.188 2.562C12.332 13.168 14 10.996 14 8.5s-1.668-4.668-4.074-5.313A5.493 5.493 0 0 0 3.738 5.75a1.146 1.146 0 0 1-.203.23l.02.012.008.008H4c.55 0 1 .45 1 1v1H0V3h1c.55 0 1 .45 1 1v.687l.016.012.011.012a7.514 7.514 0 0 1 6.567-3.707zm0 0"/><path d="M6 8h5.004c.539 0 .996.55.996 1v3H5V9.016C5 8.504 5.523 8 6 8zm0 0"/><path d="M8.484 3.977C7.133 3.997 6 5.297 6 7v2h2V7c0-.953.367-1.023.516-1.023C8.664 5.973 9 5.992 9 7h2c0-1.738-1.164-3.047-2.516-3.023zm0 0"/></g></svg>
